X:1
T:No. 1 Green Street
T:No. 1 Green Street
T:Grant Green
C:Grant Green
Z:All Rights Reserved
L:1/8
M:4/4
K:Bb
V:1 treble 
%%MIDI program 0
V:1
 z4 z2 z B |:"Bb7" fe_dB e .d2 B |"Eb7" z _d z"Edim7" B"Edim7" z d z B |"Bb7/F" fe_dB edB_A | %4
"Fm7""Bb7" z4"Bb7" z2 z B |"Eb7" fe_dB e .d2 B |"Edim7" z _d z B z d z B |"Bb7/F" fe_dB edB_A | %8
"G7b9" z8 |"Cm7" f b3 e_d .B2 |"F7" f_af_d ed_AB |"Bb7""G7b9" z8 |"Cm7""F7" z4"F7" z2 z B :| %13

